X:1
T:Frölich wollen wir
T:Lupus Hellinck
T:Source : DDT 34---Leipzig---Breitkopf & Härtel---J.Wolf---1908. First print : Newe Deudsche Geistliche Gesenge---Wittemberg---G.Rhau---1544. Editor : André Vierendeels (30/08/17).
T:Frölich wollen wir
T:©
T:©
T:©
T:©
T:©
C:Lupus Hellinck
Z:©
%%score [ 1 2 3 4 ]
L:1/8
Q:1/4=120
M:2/2
K:C
V:1 treble nm="Soprano" snm="S"
V:2 treble nm="Alto" snm="A"
V:3 treble-8 nm="Tenor" snm="T"
V:4 bass nm="Bass" snm="B"
V:1
 z8 | z8 | G6 G2 | A4 G4 | A3 G AB c2- | c2 B2 c4- | c2 B2 A4 | G2 E2 F3 G | AB A3 G G2- | %9
w: ||Frö- lich|wol- len|wir _ _ _ Hal-|* le- lu-|* ia sin-|||
 G2 F2 G4- | G4 z4 | z8 | z8 | z2 G2 A2 B2 | c4 B3 A | Bc d4 c2 | d4 G4- | G4 A4 | G4 A3 G | %19
w: * * gen,|_|||Hal- le- lu-|ia sin- *||gen, aus|_ hit-|zi- ger _|
 AB c4 B2 | c6 B2 | A4 G2 E2 | F3 G AB A2- | AG G4 F2 | G8 | z8 | z8 | z4 z2 G2 | A2 B2 c4 | %29
w: _ _ Gier _|un- sers|Her- * zen|sprin- * * * *||gen,|||un-|sers Her- *|
 B2 d3 c B2- | B2 A4 G2- | GFED ED G2- | G2 F2 G4 | G4 D4 | z8 | z4 z2 G2 | c6 B2- | B2 A4 G2 | %38
w: |||* * zen|sprin- gen,||sein|Gnad in|_ uns ge-|
 A4 A4 | A4 z4 | z4 z2 D2 | G4 F2 E2 | D2 F2 E2 D2- | DC C4 B,2 | C4 z2 C2 | G6 G2 | A2 A2 G4 | %47
w: til- get|hat|all|un- ser Sün-|||den, in|ihm so|ha- ben wir,|
 A2 A2 G4 | d4 c2 B2 | A4 G2 B2- | B2 AG A2 B2 | G8 | G3 A B2 GA | Bc d3 c c2- | c2 B2 A2 G2- | %55
w: ha- ben wir|rei- * che|Schät- * *|* * * * ze|fun-|den, _ _ in _|_ _ ihm so ha-|* * ben wir|
 GF D2 E2 G2- | G2 F2 G4 | E2 F2 G3 A | B2 A2 AG G2- | G2 F2 G4- | G4 z2 D2 | E2 G2 G2 F2 | %62
w: _ _ rei- che Schät-|||* ze fun- * *|* * den,|_ in|ihm so ha- ben|
 G4 E2 F2 | G3 A B2 A2- |"^#" AG G4 F2 | G8 |] %66
w: wir rei- che|Schät _ _ ze|_ _ fun- *|den.|
V:2
 D6 D2 | E4 D4 | E3 D EF G2- | G2 F2 EDCB, | A,2 F4 E2 | D4 C2 E2 | F2 G4 F2 | E2 C2 D2 A,2 | %8
w: Frö- lich|wol- len|wir _ _ _ Hal-|* le- lu- * * *|ia sin- *||||
 D3 C B,2 G,2 | A,4 G,4 | z8 | z4 z2 C2 | D2 E2 F4 | E4 z4 | z4 D4- | D4 E4 | D4 E3 D | EF G4 F2 | %18
w: |* gen,||sin-||gen,|ais|_ hit-|zi- ger _|_ _ Gier un-|
 EDCB, A,2 F2- | F2 E2 D4 | C2 E2 F2 G2- | G2 F2 E2 C2 | D2 A,2 D3 C | B,2 G,2 A,4 | G,4 z4 | z8 | %26
w: sers _ _ _ _ Her-|* * zen|sprin- * * *||||gen,||
 z2 C2 D2 E2 | F4 E4 | z8 | D6 D2 | E4 D4 | E8 | D8 | z2 D2 G3 F | ED E3 C D2 | E6 E2 | E4 E3 D | %37
w: aus hit- zi-|ger Gier||un- sers|Her- zen|sprin-|gen,|sein Gnad _|_ _ _ _ in|uns ge-|til- get _|
 C2 A,2 B,4 | A,2 F4 F2 | E2 F2 D4 | z2 A,2 D4 | C2 B,2 A,4- | A,2 F,2 C2 D2 | A,4 z2 D2 | %44
w: _ hat all|un- * ser|Sün- * den|all un-|ser Sün- *||den, in|
 E2 C2 G3 F | E2 D2 E2 G2- | G2 F2 G2 E2- | E2 F2 D2 G2- | GFDE F2 G2- | G2 F2 G2 G,2 | D6 D2 | %51
w: ihm so ha- *|* ben wir rei-|* * che Schät-||* * * * ze fun-|* * den, in|ihm so|
 E2 E2 D4 | E2 E2 D4 | G4 E2 F2 | D4 C2 E2 | D2 B,2 C2 E2- | E2 D2 B,2 C2- | C2 A,2 E4 | %58
w: ha- ben wir|rei- che Schät-||* * ze|fun- * * *||* * den,|
 z2 F3 E D2- | DC A,2 B,3 C | D2 C4 B,2 | C2 E2 E2 D2 | B,2 C2 C2 A,2 | E4 z2 F2- | FE D3 C A,2 | %65
w: fun- * *|||den, in ihm so|ha- * ben _|wir rei-|* che Schät- * ze|
 B,3 C D4 |] %66
w: fun- * den|
V:3
 z8 | z8 | z8 | z8 | z8 | z8 | z8 | z8 | z8 | z4 G4- | G2 G2 A4 | G4 A3 G | AB c4 B2 | c6 B2 | %14
w: |||||||||Frö-|* lich wol-|len wir _|_ _ Hal- le-|lu- ia|
 A4 G4 | z2 G2 G2 A2 | B4 c3 B | c2 e2 d4 | z8 | z8 | z8 | z8 | z8 | z8 | G4 G4 | A4 G4 | %26
w: sin- gen,|Hal- le- lu-|ia sin- *|* * gen,|||||||aus hit-|zi- ger|
 A3 G AB c2- | c2 B2 c4- | c2 B2 A4 | G2 B3 A d2- | dc c4 B2 | c6 B2 | A4 G4- | G8 | z4 z2 G2 | %35
w: Gier _ _ _ un-|* sers Her-||zen sprin- * *|||* gen,|_|sein|
 c4 c2 B2- | B2 A4 G2 | A2 A2 E4 | z2 D2 d4 | c2 A2 B4 | A8 | z8 | z2 D2 G4 | F2 E2 D4 | C8 | %45
w: Gnad in uns|_ ge- *|til- get hat,|in uns|ge- til- get|hat||all un-|ser Sün- *|den,|
 z2 G2 c4- | c2 d2 e2 c2- | c2 d2 B2 c2 | G2 B2 A2 G2 | d4 G4 | z8 | z8 | z8 | z8 | z4 z2 C2 | %55
w: in ihm|_ so ha- *|* * ben wir|rei- che Schät- ze|fun- den,|||||in|
 G6 G2 | A2 A2 G4 | A2 A2 G4 | d4 c2 B2 | A4 G4 | z2 C2 G4- | G2 G2 A2 A2 | G4 A2 A2 | G4 d4 | %64
w: ihm so|ha- ben wir|rei- che Schät-|ze fun- *|* den,|in ihm|_ so ha- ben|wir rei- che|Schät- ze|
 c2 B2 A4 | G8 |] %66
w: fun- * *|den.|
V:4
 z8 | z8 | z8 | z8 | z8 | z8 | z8 | z4 D,4- | D,2 D,2 E,4 | D,4 E,3 D, | E,F, G,4 F,2 | %11
w: |||||||Frö-|* lich wol-|len wir _|_ _ Hal- le|
 E,D,C,B,, A,,2 F,2- | F,2 E,2 D,4 | C,2 E,2 F,2 G,2- | G,2 F,2 G,4- | G,4 z4 | z8 | z8 | z8 | z8 | %20
w: lu- * * * ia sin-|||* * gen,|_|||||
 z8 | z8 | D,4 D,4 | E,4 D,4 | E,3 D, E,F, G,2- | G,2 F,2 E,D,C,B,, | A,,2 F,4 E,2 | D,4 C,2 E,2 | %28
w: ||aus hit-|zi- ger|Gier _ _ _ un-|* sers Her- * * *|* * zen|sprin- * *|
 F,2 G,4 F,2 | G,4 z2 G,2 | G,2 A,2 F,2 G,2 | C,8- | C,4 G,,4- | G,,4 z2 G,2 | C6 B,2- | %35
w: |gen, un-|sers Her- * zen|sprin-|* gen,|_ sein|Gnad in|
 B,2 A,4 G,2 | A,2 A,2 E,4 | z8 | z8 | z2 D,2 G,4 | F,4 D,4 | E,4 z2 A,,2 | D,4 C,2 B,,2 | %43
w: _ uns ge-|til- get hat|||all un-|ser Sün-|den, all|un- ser Sün-|
 A,,2 C,2 G,,4 | z8 | z8 | z8 | z8 | z8 | z2 D,2 E,2 G,2- | G,2 F,E, F,2 G,2 | C,2 C4 B,2 | %52
w: * * den,||||||in ihm _|_ _ _ _ so|ha- * ben|
 C2 C,2 G,4- | G,2 G,2 A,2 A,2 | G,4 C,4 | z2 G,,2 C,4- | C,2 D,2 E,2 C,2- | C,2 D,2 E,2 C,2 | %58
w: wir, in ihm|_ so ha- ben|wir, _|in ihm|_ so ha- *|* * ben wir|
 D,3 E, F,2 G,2 | D,4 G,,3 A,, | B,,2 C,2 G,,2 G,,2 | C,6 D,2 | E,2 C,4 D,2 | E,2 C,2 D,3 E, | %64
w: rei- * * che|Schät- * ze|fun- * den, in|ihm so|ha- ben wir|rei- che Schät- *|
 F,2 G,2 D,4 | G,,8 |] %66
w: * ze fun-|den.|

